Gurmukhi/0A51.svg

<svg enable-background="new 0 0 336 592" viewBox="0 0 336 592" xmlns="http://www.w3.org/2000/svg"><path d="m202.682129 425.266785c-3.259277-5.263703-6.256531-10.266999-9.435379-15.15213-1.672012-2.56952-1.664887-4.226777 1.215393-6.066834 7.664307-4.89624 7.594925-5.032928 12.903732 2.523651 6.22641 8.862732 12.321366 17.832001 20.652497 24.950257 7.618728 6.509613 16.403549 10.064575 26.457779 10.178009 6.327468.071441 12.659378-.006897 18.985153-.17508 2.056305-.054657 3.516052.095856 4.040893 2.517395 1.470093 6.782685 3.095307 13.531769 4.660858 20.300812-28.133819 5.588043-49.690307 1.110413-65.981048-20.038025-4.670654-6.063446-8.888031-12.476074-13.499878-19.038055z"/><path d="m117.399216 278.433563c-5.428139.626068-8.879555-1.646576-10.065972-6.422973-1.018181-4.099152.736954-7.499207 4.609444-9.463135 3.690697-1.871765 8.121597-.65799 10.615684 2.743561 3.406945 4.646545 1.380509 10.18103-5.159156 13.142547z"/><path d="m230.036057 270.867188c.199584-2.756653.881317-4.95044 2.599533-6.672699 3.468948-3.477051 9.175872-3.270691 12.41249.410614 3.130341 3.560424 2.751923 8.850341-.859237 12.010772-3.589646 3.141602-9.468003 2.569763-12.305359-1.340149-.845734-1.165435-1.225906-2.66867-1.847427-4.408538z"/><path d="m220.13501 240.699677c8.048019-2.286896 14.214905 2.036224 12.787002 8.579025-.851303 3.900833-3.135437 6.502624-7.312759 7.016189-4.118851.506409-7.204392-1.189712-8.873123-4.870803-1.910355-4.214051-.311508-7.685822 3.39888-10.724411z"/><path d="m110.803062 303.940796c-4.6557-.197815-7.635665-2.337616-8.835266-6.40448-.966697-3.277222.080048-6.322388 2.662735-8.53302 2.73275-2.339111 5.938843-2.863556 9.27137-1.243988 3.560112 1.730194 4.885201 4.694153 4.564186 8.556885-.376129 4.52594-3.154136 6.673889-7.663025 7.624603z"/><path d="m244.001801 286.840454c5.022781.749909 8.122604 3.036682 8.306335 8.080933.149109 4.092804-1.519913 7.066314-5.571106 8.429901-4.024933 1.354706-7.25621.059692-9.646713-3.208557-3.84346-5.254669-.874436-11.211335 6.911484-13.302277z"/><path d="m219.854095 335.721222c3.92273-1.76535 7.426316-1.86911 10.436539.978668 2.121872 2.007385 3.408844 4.487427 2.588257 7.56601-1.025848 3.848755-3.295609 6.467895-7.427353 6.956726-3.919266.463714-6.73526-1.340393-8.475891-4.743866-2.140884-4.186127-.807724-7.643219 2.878448-10.757538z"/><path d="m185.347351 228.043243c-.724991 6.053452-4.011902 9.279541-8.800705 9.067521-4.05365-.179474-7.67363-3.953736-7.840485-8.174622-.183975-4.654099 2.877396-8.288223 7.516419-8.922562 4.495316-.614669 8.027664 2.334519 9.124771 8.029663z"/><path d="m108.208237 316.473022c2.864982-3.923065 6.297348-5.411651 10.5839-3.661865 3.562622 1.454315 5.507324 4.373291 5.317413 8.177033-.200828 4.022674-2.527885 6.737152-6.474266 7.854492-3.184623.901611-5.877494-.110901-8.115509-2.408722-2.758636-2.832428-3.025467-6.099091-1.311538-9.960938z"/><path d="m193.752563 233.997772c1.722168-7.107651 5.691681-9.779281 11.376282-8.060135 4.575073 1.383606 7.030884 6.708145 4.981354 11.252274-1.665314 3.692291-4.676529 5.52243-8.7836 5.083816-4.666-.498275-6.826248-3.537139-7.574036-8.275955z"/><path d="m245.048141 315.086914c2.833085 5.25943 2.47052 9.006744-.87854 11.879486-3.234512 2.774475-7.636642 2.844208-10.896423.172547-3.710037-3.04065-4.230728-8.235566-1.198318-11.954712 3.026184-3.711548 7.91008-3.866852 12.973281-.097321z"/><path d="m130.680328 334.584717c5.610352 1.577209 8.31604 5.319031 7.406754 9.751465-.92128 4.490905-4.98729 7.419342-9.568222 6.891266-4.020882-.463501-7.188301-4.104737-7.200203-8.277283-.014732-5.165985 2.886177-7.875305 9.361671-8.365448z"/><path d="m196.826691 363.360291c-3.460648-3.596863-3.998307-7.21167-1.514206-11.159302 2.05571-3.266815 5.199127-4.006104 8.700195-3.438721 3.669373.594727 5.900574 2.90625 6.601944 6.552551.65976 3.430024-.539825 6.263642-3.305801 8.297303-3.330033 2.448394-6.788742 2.321045-10.482132-.251831z"/><path d="m137.242676 244.122772c1.658233 5.715409.086899 9.78505-4.15506 11.580704-4.263962 1.804977-8.958527.079437-11.015381-4.048843-1.768013-3.548539-.477959-8.409958 2.826218-10.650315 3.830993-2.597519 8.447281-1.55394 12.344223 3.118454z"/><path d="m169.924225 366.67981c-1.992996-3.841889-1.578201-7.181061.973022-10.047242 2.103638-2.363372 4.922394-3.524414 8.097992-2.580719 3.58664 1.065857 6.109329 3.196839 6.3526 7.336792.228623 3.890869-1.069381 6.927613-4.705581 8.50998-4.170822 1.814972-7.782883.919281-10.718033-3.218811z"/><path d="m152.806671 225.667633c4.971008.872009 7.395966 3.613129 7.493027 8.240036.08873 4.229706-2.210465 6.952896-6.083969 8.089386-3.915695 1.14885-7.22699-.111923-9.459534-3.646164-3.699692-5.856811.036514-12.05098 8.050476-12.683258z"/><path d="m157.357269 350.450378c4.126663 5.348175 3.64766 10.671082-.89479 13.608674-3.94368 2.550292-9.349182 1.394805-11.696656-2.747437-1.977661-3.489716-1.845016-7.176178.963501-10.127014 3.320343-3.488587 7.305756-3.358948 11.627945-.734223z"/></svg>

<svg version="1.1" id="Layer_1" xmlns="http://www.w3.org/2000/svg" xmlns:xlink="http://www.w3.org/1999/xlink" x="0px" y="0px"
	 width="100%" viewBox="0 0 336 592" enable-background="new 0 0 336 592" xml:space="preserve">
<path fill="#000000" opacity="1.000000" stroke="none" 
	d="
M202.682129,425.266785 
	C199.422852,420.003082 196.425598,414.999786 193.246750,410.114655 
	C191.574738,407.545135 191.581863,405.887878 194.462143,404.047821 
	C202.126450,399.151581 202.057068,399.014893 207.365875,406.571472 
	C213.592285,415.434204 219.687241,424.403473 228.018372,431.521729 
	C235.637100,438.031342 244.421921,441.586304 254.476151,441.699738 
	C260.803619,441.771179 267.135529,441.692841 273.461304,441.524658 
	C275.517609,441.470001 276.977356,441.620514 277.502197,444.042053 
	C278.972290,450.824738 280.597504,457.573822 282.163055,464.342865 
	C254.029236,469.930908 232.472748,465.453278 216.182007,444.304840 
	C211.511353,438.241394 207.293976,431.828766 202.682129,425.266785 
z"/>
<path fill="#000000" opacity="1.000000" stroke="none" 
	d="
M117.399216,278.433563 
	C111.971077,279.059631 108.519661,276.786987 107.333244,272.010590 
	C106.315063,267.911438 108.070198,264.511383 111.942688,262.547455 
	C115.633385,260.675690 120.064285,261.889465 122.558372,265.291016 
	C125.965317,269.937561 123.938881,275.472046 117.399216,278.433563 
z"/>
<path fill="#000000" opacity="1.000000" stroke="none" 
	d="
M230.036057,270.867188 
	C230.235641,268.110535 230.917374,265.916748 232.635590,264.194489 
	C236.104538,260.717438 241.811462,260.923798 245.048080,264.605103 
	C248.178421,268.165527 247.800003,273.455444 244.188843,276.615875 
	C240.599197,279.757477 234.720840,279.185638 231.883484,275.275726 
	C231.037750,274.110291 230.657578,272.607056 230.036057,270.867188 
z"/>
<path fill="#000000" opacity="1.000000" stroke="none" 
	d="
M220.135010,240.699677 
	C228.183029,238.412781 234.349915,242.735901 232.922012,249.278702 
	C232.070709,253.179535 229.786575,255.781326 225.609253,256.294891 
	C221.490402,256.801300 218.404861,255.105179 216.736130,251.424088 
	C214.825775,247.210037 216.424622,243.738266 220.135010,240.699677 
z"/>
<path fill="#000000" opacity="1.000000" stroke="none" 
	d="
M110.803062,303.940796 
	C106.147362,303.742981 103.167397,301.603180 101.967796,297.536316 
	C101.001099,294.259094 102.047844,291.213928 104.630531,289.003296 
	C107.363281,286.664185 110.569374,286.139740 113.901901,287.759308 
	C117.462013,289.489502 118.787102,292.453461 118.466087,296.316193 
	C118.089958,300.842133 115.311951,302.990082 110.803062,303.940796 
z"/>
<path fill="#000000" opacity="1.000000" stroke="none" 
	d="
M244.001801,286.840454 
	C249.024582,287.590363 252.124405,289.877136 252.308136,294.921387 
	C252.457245,299.014191 250.788223,301.987701 246.737030,303.351288 
	C242.712097,304.705994 239.480820,303.410980 237.090317,300.142731 
	C233.246857,294.888062 236.215881,288.931396 244.001801,286.840454 
z"/>
<path fill="#000000" opacity="1.000000" stroke="none" 
	d="
M219.854095,335.721222 
	C223.776825,333.955872 227.280411,333.852112 230.290634,336.699890 
	C232.412506,338.707275 233.699478,341.187317 232.878891,344.265900 
	C231.853043,348.114655 229.583282,350.733795 225.451538,351.222626 
	C221.532272,351.686340 218.716278,349.882233 216.975647,346.478760 
	C214.834763,342.292633 216.167923,338.835541 219.854095,335.721222 
z"/>
<path fill="#000000" opacity="1.000000" stroke="none" 
	d="
M185.347351,228.043243 
	C184.622360,234.096695 181.335449,237.322784 176.546646,237.110764 
	C172.492996,236.931290 168.873016,233.157028 168.706161,228.936142 
	C168.522186,224.282043 171.583557,220.647919 176.222580,220.013580 
	C180.717896,219.398911 184.250244,222.348099 185.347351,228.043243 
z"/>
<path fill="#000000" opacity="1.000000" stroke="none" 
	d="
M108.208237,316.473022 
	C111.073219,312.549957 114.505585,311.061371 118.792137,312.811157 
	C122.354759,314.265472 124.299461,317.184448 124.109550,320.988190 
	C123.908722,325.010864 121.581665,327.725342 117.635284,328.842682 
	C114.450661,329.744293 111.757790,328.731781 109.519775,326.433960 
	C106.761139,323.601532 106.494308,320.334869 108.208237,316.473022 
z"/>
<path fill="#000000" opacity="1.000000" stroke="none" 
	d="
M193.752563,233.997772 
	C195.474731,226.890121 199.444244,224.218491 205.128845,225.937637 
	C209.703918,227.321243 212.159729,232.645782 210.110199,237.189911 
	C208.444885,240.882202 205.433670,242.712341 201.326599,242.273727 
	C196.660599,241.775452 194.500351,238.736588 193.752563,233.997772 
z"/>
<path fill="#000000" opacity="1.000000" stroke="none" 
	d="
M245.048141,315.086914 
	C247.881226,320.346344 247.518661,324.093658 244.169601,326.966400 
	C240.935089,329.740875 236.532959,329.810608 233.273178,327.138947 
	C229.563141,324.098297 229.042450,318.903381 232.074860,315.184235 
	C235.101044,311.472687 239.984940,311.317383 245.048141,315.086914 
z"/>
<path fill="#000000" opacity="1.000000" stroke="none" 
	d="
M130.680328,334.584717 
	C136.290680,336.161926 138.996368,339.903748 138.087082,344.336182 
	C137.165802,348.827087 133.099792,351.755524 128.518860,351.227448 
	C124.497978,350.763947 121.330559,347.122711 121.318657,342.950165 
	C121.303925,337.784180 124.204834,335.074860 130.680328,334.584717 
z"/>
<path fill="#000000" opacity="1.000000" stroke="none" 
	d="
M196.826691,363.360291 
	C193.366043,359.763428 192.828384,356.148621 195.312485,352.200989 
	C197.368195,348.934174 200.511612,348.194885 204.012680,348.762268 
	C207.682053,349.356995 209.913254,351.668518 210.614624,355.314819 
	C211.274384,358.744843 210.074799,361.578461 207.308823,363.612122 
	C203.978790,366.060516 200.520081,365.933167 196.826691,363.360291 
z"/>
<path fill="#000000" opacity="1.000000" stroke="none" 
	d="
M137.242676,244.122772 
	C138.900909,249.838181 137.329575,253.907822 133.087616,255.703476 
	C128.823654,257.508453 124.129089,255.782913 122.072235,251.654633 
	C120.304222,248.106094 121.594276,243.244675 124.898453,241.004318 
	C128.729446,238.406799 133.345734,239.450378 137.242676,244.122772 
z"/>
<path fill="#000000" opacity="1.000000" stroke="none" 
	d="
M169.924225,366.679810 
	C167.931229,362.837921 168.346024,359.498749 170.897247,356.632568 
	C173.000885,354.269196 175.819641,353.108154 178.995239,354.051849 
	C182.581879,355.117706 185.104568,357.248688 185.347839,361.388641 
	C185.576462,365.279510 184.278458,368.316254 180.642258,369.898621 
	C176.471436,371.713593 172.859375,370.817902 169.924225,366.679810 
z"/>
<path fill="#000000" opacity="1.000000" stroke="none" 
	d="
M152.806671,225.667633 
	C157.777679,226.539642 160.202637,229.280762 160.299698,233.907669 
	C160.388428,238.137375 158.089233,240.860565 154.215729,241.997055 
	C150.300034,243.145905 146.988739,241.885132 144.756195,238.350891 
	C141.056503,232.494080 144.792709,226.299911 152.806671,225.667633 
z"/>
<path fill="#000000" opacity="1.000000" stroke="none" 
	d="
M157.357269,350.450378 
	C161.483932,355.798553 161.004929,361.121460 156.462479,364.059052 
	C152.518799,366.609344 147.113297,365.453857 144.765823,361.311615 
	C142.788162,357.821899 142.920807,354.135437 145.729324,351.184601 
	C149.049667,347.696014 153.035080,347.825653 157.357269,350.450378 
z"/>
</svg>
